X: 28095
T: Mr. Graham Of Orchill's
R: strathspey
M: 4/4
K: Gdorian
f|c<Fc>A c>F A<f|c<Fc>A {A}G2G>f|c<Fc>A f>(g{fg}a)>g|f>d{d/}c>A [G2E2][GE]:|
c|f>(g{fg}a)>g .f.c.A.F|(f/e/f/g/) a>c {c}d2 d>g|f>gaf gaf>c|d<fc>A {G}[G2E2][GE]>c|
f>(g{fg}a)>g .f.c.A.F|(f/e/f/g/) a>c {c}d2 d>g|(f/e/f/g/) a>d (g/f/g/a/) f>c|d<fc>A {A}[G2E2][GE]||

